assets/Racing car/Flat/racing_car_flat.svg

<svg width="32" height="32" viewBox="0 0 32 32" fill="none" xmlns="http://www.w3.org/2000/svg">
<path d="M30 26.4774H28V27L24.1484 27.6864L5.4196 28.0985L2 27L6.42 24.79C8.78 23.61 11.37 23 14 23H16L17 24H20V21C21.1382 21 22.2483 21.2671 23.2469 21.7679C23.64 21.965 23.795 22.3575 24.1484 22.625C24.4118 22.8243 24.9433 23.1659 25.1797 23.4023L26 24V19.9774H30V26.4774Z" fill="#F8312F"/>
<path d="M28 25H6L4 26H28V25Z" fill="#F4F4F4"/>
<path d="M26 20H30V19H26V20Z" fill="#E6E6E6"/>
<path d="M26 27H2V29H26V27Z" fill="#CA0B4A"/>
<path d="M30 22H26V21H30V22ZM18 29H20.5C21.33 29 22 28.33 22 27.5C22 26.67 21.33 26 20.5 26H18V29Z" fill="#F9C23C"/>
<path d="M19 24H20V21C19.45 21 19 21.45 19 22V24ZM17 26H18V29H17V26Z" fill="#636363"/>
<path d="M23.2397 21.7643L21 24H26L25.12 23.12C24.5643 22.5643 23.9284 22.1087 23.2397 21.7643Z" fill="#E6E6E6"/>
<path d="M12 26.5C12 28.433 10.433 30 8.5 30C6.567 30 5 28.433 5 26.5C5 24.567 6.567 23 8.5 23C10.433 23 12 24.567 12 26.5ZM30 26.5C30 28.433 28.433 30 26.5 30C24.567 30 23 28.433 23 26.5C23 24.567 24.567 23 26.5 23C28.433 23 30 24.567 30 26.5Z" fill="#321B41"/>
<path d="M10 26.5C10 27.3284 9.32843 28 8.5 28C7.67157 28 7 27.3284 7 26.5C7 25.6716 7.67157 25 8.5 25C9.32843 25 10 25.6716 10 26.5ZM28 26.5C28 27.3284 27.3284 28 26.5 28C25.6716 28 25 27.3284 25 26.5C25 25.6716 25.6716 25 26.5 25C27.3284 25 28 25.6716 28 26.5Z" fill="#F4F4F4"/>
</svg>

<svg xmlns="http://www.w3.org/2000/svg" width="32" height="32" fill="none"><path fill="#F8312F" d="M30 26.477h-2V27l-3.852.686L5.42 28.1 2 27l4.42-2.21C8.78 23.61 11.37 23 14 23h2l1 1h3v-3a7.24 7.24 0 0 1 3.247.768c.393.197.548.59.901.857.264.2.795.54 1.032.777L26 24v-4.023h4v6.5Z"/><path fill="#F4F4F4" d="M28 25H6l-2 1h24v-1Z"/><path fill="#E6E6E6" d="M26 20h4v-1h-4v1Z"/><path fill="#CA0B4A" d="M26 27H2v2h24v-2Z"/><path fill="#F9C23C" d="M30 22h-4v-1h4v1Zm-12 7h2.5c.83 0 1.5-.67 1.5-1.5s-.67-1.5-1.5-1.5H18v3Z"/><path fill="#636363" d="M19 24h1v-3c-.55 0-1 .45-1 1v2Zm-2 2h1v3h-1v-3Z"/><path fill="#E6E6E6" d="M23.24 21.764 21 24h5l-.88-.88a7.235 7.235 0 0 0-1.88-1.356Z"/><path fill="#321B41" d="M12 26.5a3.5 3.5 0 1 1-7 0 3.5 3.5 0 0 1 7 0Zm18 0a3.5 3.5 0 1 1-7 0 3.5 3.5 0 0 1 7 0Z"/><path fill="#F4F4F4" d="M10 26.5a1.5 1.5 0 1 1-3 0 1.5 1.5 0 0 1 3 0Zm18 0a1.5 1.5 0 1 1-3 0 1.5 1.5 0 0 1 3 0Z"/></svg>
